public/avatar/item1/67.svg

<svg xmlns:xlink="http://www.w3.org/1999/xlink" height="65.4" width="80.15" xmlns="http://www.w3.org/2000/svg"><use height="11.75" transform="translate(14.6 41.05)" width="15.2" xlink:href="#a"/><defs><g id="a" fill-rule="evenodd"><path d="m-6.55 36.35-.15-.15-.9-.75-2.2-1.9-.3-.25-.05-.05-.25-.25-.1-.05-.1-.1-.05-.05-3.45-2.95-1-.75 4.1 3.95 3.75 3.65L-6 37.9l.25-.05.15-.05.1-.05.25-.1.15-.05-.15-.15-.25-.2-.1-.1-.15-.1-.8-.7m-3.1-4.45-.45-.3-3.4-2.2-.45-.35-.05.05-.15-.15q-.35-.3-.75-.5l-.05-.05q-.1-.15-.35-.15l-.15.05v-.05h-.1v.15l5.4 4 .05.05 4.1 3 1.7 1.3h.05v-.05l.8-.25.45-.2v-.1l-.45-.3q-.45-.25-.85-.55l-.15-.05-.1-.1-.3-.2-.05-.05-.15-.05v-.05l-.15-.1h-.1l-.3-.2-.15-.1-1.85-1.2-1.75-1.15-.2-.1-.1-.05m2.35 4.9-.3.1-.15.05 1.15 1.2.05-.05.45-.1-1.2-1.2-3.65-3.5-4.7-4.5v.05l.05.05h.05l.9.95h-.05V30l3.3 3.3.25-.15.15.1.05.05-.05-.05-.15-.1-.25.15-3.3-3.3v-.15h.05l-.9-.95h-.05l-.05-.05v-.05l4.7 4.5 3.65 3.5m-4.1-3.5 3.55 3.6.05.05h.05-.05l-.05-.05-3.55-3.6m4.85 2.85.1.1.05.05.1.05 1.25 1.1.1.05.1-.1.3-.25.1-.1h.05l-.05-.05-1.7-1.25-4.25-3.15-2.1-1.55 1.95 1.7h.05l3.9 3.35.05.05m4.75.75-1.6.45.1.05-.2.15-.1.1-.3.6-.2.05.1.1-.25.05-.05-.05-2.05.55-.1.05-10.3-10.5q-.3-.15-.25-.7v-.1l.1-.1q.1-.35.6-.35h.4l-.6.15.65-.15.55.45 13.5 8.7v.5m-12.45-7.35.5.35-.55-.4.05.05m-2.25-2.15-.2.05.2-.05m2.75 2.5.15.1-.15-.1m.25 3.05.05-.05v.1l-.05.05v-.1m7.85 5.5.1-.05h-.1v.05" fill="#63411b" transform="translate(17 -27.25)"/><path d="m-6.55 36.35.8.7.15.1.1.1.25.2.15.15-.15.05-.25.1-.1.05-.15.05-.25.05-1.25-1.2.1.05.6-.4m-4.45-3.3-4.1-3.95 1 .75 3.45 2.95-.35.25m1.35-1.15-.45.45-.05.05-5.4-4v-.15h.1v.05l.15-.05q.25 0 .35.15l.05.05q.4.2.75.5l.15.15.05-.05.45.35 3.4 2.2.45.3M-6 35.45l.05-.05.2-.05.15-.05.1-.05.25-.1.2-.15.15-.1.05.05.3.2.1.1.15.05q.4.3.85.55l.45.3v.1l-.45.2-.8.25v.05h-.05l-1.7-1.3m.75-.75-.05.05v-.05h.05m-2.05 2.1 1.2 1.2-.45.1-.05.05-1.15-1.2.15-.05.3-.1m.75-.65-.05-.05.15-.2h.05l-.05.2-.1.05m-4-3.4-1.95-1.7 2.1 1.55-.15.15m4.4 3 1.7 1.25.05.05h-.05l-.1.1-.3.25-.1.1-.1-.05-1.25-1.1-.1-.05-.05-.05.15-.15.05.05v.05l.05-.15.05-.3m-8.1-6.2-.05-.05.55.4-.5-.35" fill="#ba831b" transform="translate(17 -27.25)"/><path d="m-10.65 32.8.05.05.1.1.1.05.25.25.05.05.3.25 2.2 1.9.9.75.15.15-.6.4-.1-.05-3.75-3.65.35-.25m.5-.4.05-.05.45-.45.1.05.2.1 1.75 1.15 1.85 1.2.15.1.3.2v.05l.05-.05h.05l.15.1v.05l.15.05-.15.1-.2.15-.25.1-.1.05-.15.05-.2.05-.05.05-4.1-3-.05-.05m3.7 3.85-.1-.1.1-.05.05-.2h-.05l-.15.2-3.9-3.35h-.05l.15-.15 4.25 3.15-.05.3-.05.15v-.05l-.05-.05-.15.15" fill="#e0c269" transform="translate(17 -27.25)"/></g></defs></svg>

<?xml version="1.0" encoding="UTF-8" standalone="no"?>
<svg xmlns:xlink="http://www.w3.org/1999/xlink" height="65.4px" width="80.15px" xmlns="http://www.w3.org/2000/svg">
  <g transform="matrix(1.0, 0.0, 0.0, 1.0, 31.6, 13.8)">
    <use height="11.75" transform="matrix(1.0, 0.0, 0.0, 1.0, -17.0, 27.25)" width="15.2" xlink:href="#shape0"/>
  </g>
  <defs>
    <g id="shape0" transform="matrix(1.0, 0.0, 0.0, 1.0, 17.0, -27.25)">
      <path d="M-6.55 36.35 L-6.7 36.2 -7.6 35.45 -9.8 33.55 -10.1 33.3 -10.15 33.25 -10.4 33.0 -10.5 32.95 -10.6 32.85 -10.65 32.8 -14.1 29.85 -15.1 29.1 -11.0 33.05 -7.25 36.7 -6.0 37.9 -5.75 37.85 -5.6 37.8 -5.5 37.75 -5.25 37.65 -5.1 37.6 -5.25 37.45 -5.5 37.25 -5.6 37.15 -5.75 37.05 -6.55 36.35 M-9.65 31.9 L-10.1 31.6 -13.5 29.4 -13.95 29.05 -14.0 29.1 -14.15 28.95 Q-14.5 28.65 -14.9 28.45 L-14.95 28.4 Q-15.05 28.25 -15.3 28.25 L-15.45 28.3 -15.45 28.25 -15.55 28.25 -15.55 28.4 -10.15 32.4 -10.1 32.45 -6.0 35.45 -4.3 36.75 -4.25 36.75 -4.25 36.7 -3.45 36.45 -3.0 36.25 -3.0 36.15 -3.45 35.85 Q-3.9 35.6 -4.3 35.3 L-4.45 35.25 -4.55 35.15 -4.85 34.95 -4.9 34.9 -5.05 34.85 -5.05 34.8 -5.2 34.7 -5.25 34.7 -5.3 34.7 -5.6 34.5 -5.75 34.4 -7.6 33.2 -9.35 32.05 -9.55 31.95 -9.65 31.9 M-7.3 36.8 L-7.6 36.9 -7.75 36.95 -6.6 38.15 -6.55 38.1 -6.1 38.0 -7.3 36.8 -10.95 33.3 -15.65 28.8 -15.65 28.85 -15.6 28.9 -15.55 28.9 -14.65 29.85 -14.7 29.85 -14.7 29.95 -14.7 30.0 -11.4 33.3 -11.15 33.15 -11.0 33.25 -10.95 33.3 -11.0 33.25 -11.15 33.15 -11.4 33.3 -14.7 30.0 -14.7 29.95 -14.7 29.85 -14.65 29.85 -15.55 28.9 -15.6 28.9 -15.65 28.85 -15.65 28.8 -10.95 33.3 -7.3 36.8 M-11.4 33.3 L-7.85 36.9 -7.8 36.95 -7.75 36.95 -7.8 36.95 -7.85 36.9 -11.4 33.3 M-6.55 36.15 L-6.45 36.25 -6.4 36.3 -6.3 36.35 -5.05 37.45 -4.95 37.5 -4.85 37.4 -4.55 37.15 -4.45 37.05 -4.4 37.05 -4.45 37.0 -6.15 35.75 -10.4 32.6 -12.5 31.05 -10.55 32.75 -10.5 32.75 -6.6 36.1 -6.55 36.15 M-1.8 36.9 L-3.4 37.35 -3.3 37.4 -3.5 37.55 -3.6 37.65 -3.9 38.25 -4.1 38.3 -4.0 38.4 -4.25 38.45 -4.3 38.4 -6.35 38.95 -6.45 39.0 -16.75 28.5 Q-17.05 28.35 -17.0 27.8 L-17.0 27.75 -17.0 27.7 -16.9 27.6 Q-16.8 27.25 -16.3 27.25 L-15.9 27.25 -16.5 27.4 -15.85 27.25 -15.3 27.7 -1.8 36.4 -1.8 36.9 M-14.25 29.55 L-13.75 29.9 -14.3 29.5 -14.25 29.55 M-16.5 27.4 L-16.7 27.45 -16.5 27.4 M-13.75 29.9 L-13.6 30.0 -13.75 29.9 M-13.5 32.95 L-13.45 32.9 -13.45 33.0 -13.5 33.05 -13.5 32.95 M-5.65 38.45 L-5.55 38.4 -5.65 38.4 -5.65 38.45" fill="#63411b" fill-rule="evenodd" stroke="none"/>
      <path d="M-6.55 36.35 L-5.75 37.05 -5.6 37.15 -5.5 37.25 -5.25 37.45 -5.1 37.6 -5.25 37.65 -5.5 37.75 -5.6 37.8 -5.75 37.85 -6.0 37.9 -7.25 36.7 -7.15 36.75 -6.55 36.35 M-11.0 33.05 L-15.1 29.1 -14.1 29.85 -10.65 32.8 -11.0 33.05 M-9.65 31.9 L-10.1 32.35 -10.15 32.4 -15.55 28.4 -15.55 28.25 -15.45 28.25 -15.45 28.3 -15.3 28.25 Q-15.05 28.25 -14.95 28.4 L-14.9 28.45 Q-14.5 28.65 -14.15 28.95 L-14.0 29.1 -13.95 29.05 -13.5 29.4 -10.1 31.6 -9.65 31.9 M-6.0 35.45 L-5.95 35.4 -5.75 35.35 -5.6 35.3 -5.5 35.25 -5.25 35.15 -5.05 35.0 -4.9 34.9 -4.85 34.95 -4.55 35.15 -4.45 35.25 -4.3 35.3 Q-3.9 35.6 -3.45 35.85 L-3.0 36.15 -3.0 36.25 -3.45 36.45 -4.25 36.7 -4.25 36.75 -4.3 36.75 -6.0 35.45 M-5.25 34.7 L-5.3 34.75 -5.3 34.7 -5.25 34.7 M-7.3 36.8 L-6.1 38.0 -6.55 38.1 -6.6 38.15 -7.75 36.95 -7.6 36.9 -7.3 36.8 M-6.55 36.15 L-6.6 36.1 -6.45 35.9 -6.4 35.9 -6.45 36.1 -6.55 36.15 M-10.55 32.75 L-12.5 31.05 -10.4 32.6 -10.55 32.75 M-6.15 35.75 L-4.45 37.0 -4.4 37.05 -4.45 37.05 -4.55 37.15 -4.85 37.4 -4.95 37.5 -5.05 37.45 -6.3 36.35 -6.4 36.3 -6.45 36.25 -6.3 36.1 -6.25 36.15 -6.25 36.2 -6.2 36.05 -6.15 35.75 M-14.25 29.55 L-14.3 29.5 -13.75 29.9 -14.25 29.55" fill="#ba831b" fill-rule="evenodd" stroke="none"/>
      <path d="M-10.65 32.8 L-10.6 32.85 -10.5 32.95 -10.4 33.0 -10.15 33.25 -10.1 33.3 -9.8 33.55 -7.6 35.45 -6.7 36.2 -6.55 36.35 -7.15 36.75 -7.25 36.7 -11.0 33.05 -10.65 32.8 M-10.15 32.4 L-10.1 32.35 -9.65 31.9 -9.55 31.95 -9.35 32.05 -7.6 33.2 -5.75 34.4 -5.6 34.5 -5.3 34.7 -5.3 34.75 -5.25 34.7 -5.2 34.7 -5.05 34.8 -5.05 34.85 -4.9 34.9 -5.05 35.0 -5.25 35.15 -5.5 35.25 -5.6 35.3 -5.75 35.35 -5.95 35.4 -6.0 35.45 -10.1 32.45 -10.15 32.4 M-6.45 36.25 L-6.55 36.15 -6.45 36.1 -6.4 35.9 -6.45 35.9 -6.6 36.1 -10.5 32.75 -10.55 32.75 -10.4 32.6 -6.15 35.75 -6.2 36.05 -6.25 36.2 -6.25 36.15 -6.3 36.1 -6.45 36.25" fill="#e0c269" fill-rule="evenodd" stroke="none"/>
    </g>
  </defs>
</svg>
